fs/shopping_bag_tag_20_filled.svg

<svg viewBox="0 0 20 20" fill="none" xmlns="http://www.w3.org/2000/svg" height="1em" width="1em">
  <path d="M6 6V4.5C6 4.156 6.065 3.833 6.195 3.531C6.325 3.224 6.505 2.958 6.734 2.734C6.958 2.505 7.224 2.325 7.531 2.195C7.833 2.065 8.156 2 8.5 2C8.781 2 9.049 2.044 9.305 2.133C9.561 2.222 9.795 2.347 10.008 2.508C10.216 2.347 10.448 2.222 10.703 2.133C10.953 2.044 11.219 2 11.5 2C11.844 2 12.169 2.065 12.477 2.195C12.779 2.325 13.045 2.505 13.274 2.734C13.498 2.958 13.675 3.224 13.805 3.531C13.935 3.833 14 4.156 14 4.5V6H15C15.5523 6 16 6.44772 16 7V9.59099C15.5494 9.21098 14.9772 9 14.3829 9H12V6H13V4.5C13 4.292 12.961 4.096 12.883 3.914C12.805 3.732 12.698 3.573 12.563 3.437C12.428 3.301 12.269 3.195 12.086 3.117C11.903 3.039 11.708 3 11.5 3C11.193 3 10.917 3.086 10.672 3.258C10.776 3.44 10.857 3.635 10.914 3.844C10.971 4.053 11 4.271 11 4.5V9.0518C9.85747 9.28761 9 10.3004 9 11.5118V14.3907C9 15.048 9.2575 15.6795 9.7176 16.1492L11.5306 18H7C6.58301 18 6.19501 17.922 5.836 17.766C5.47101 17.61 5.15399 17.396 4.883 17.125C4.60699 16.849 4.39099 16.531 4.23499 16.172C4.078 15.807 4 15.417 4 15V7C4 6.44772 4.44772 6 5 6H6ZM10 6V4.5C10 4.292 9.961 4.096 9.883 3.914C9.805 3.732 9.698 3.573 9.563 3.437C9.428 3.301 9.269 3.195 9.086 3.117C8.903 3.039 8.708 3 8.5 3C8.292 3 8.096 3.039 7.914 3.117C7.732 3.195 7.573 3.302 7.437 3.437C7.301 3.572 7.195 3.731 7.117 3.914C7.039 4.097 7 4.292 7 4.5V6H10ZM10.432 15.4494C10.1551 15.1668 10 14.7866 10 14.3907V11.5118C10 10.6769 10.6759 10 11.5097 10H14.3829C14.7855 10 15.1715 10.1611 15.4549 10.4474L18.5625 13.5864C19.1559 14.1858 19.1443 15.1557 18.5367 15.7407L15.5901 18.578C14.9934 19.1526 14.0458 19.1387 13.4661 18.5469L10.432 15.4494ZM12.0001 12.75C12.0001 13.1642 12.3359 13.5 12.7501 13.5C13.1644 13.5 13.5001 13.1642 13.5001 12.75C13.5001 12.3358 13.1644 12 12.7501 12C12.3359 12 12.0001 12.3358 12.0001 12.75Z" fill="#212121"/>
</svg>

<svg viewBox="0 0 20 20" fill="none" xmlns="http://www.w3.org/2000/svg" height="1em" width="1em">
  <path d="M6 6V4.5c0-.344.065-.667.195-.969.13-.307.31-.573.539-.797.224-.229.49-.409.797-.539.302-.13.625-.195.969-.195.281 0 .549.044.805.133.256.089.49.214.703.375A2.442 2.442 0 0 1 11.5 2a2.484 2.484 0 0 1 2.305 1.531c.13.302.195.625.195.969V6h1a1 1 0 0 1 1 1v2.591A2.508 2.508 0 0 0 14.383 9H12V6h1V4.5c0-.208-.039-.404-.117-.586A1.482 1.482 0 0 0 11.5 3c-.307 0-.583.086-.828.258A2.503 2.503 0 0 1 11 4.5v4.552a2.512 2.512 0 0 0-2 2.46v2.879c0 .657.258 1.289.718 1.758L11.53 18H7a3 3 0 0 1-2.117-.875 3.061 3.061 0 0 1-.648-.953A2.932 2.932 0 0 1 4 15V7a1 1 0 0 1 1-1h1Zm4 0V4.5c0-.208-.039-.404-.117-.586A1.482 1.482 0 0 0 8.5 3c-.208 0-.404.039-.586.117A1.482 1.482 0 0 0 7 4.5V6h3Zm.432 9.45A1.513 1.513 0 0 1 10 14.39v-2.878A1.51 1.51 0 0 1 11.51 10h2.873c.403 0 .789.161 1.072.447l3.107 3.14a1.513 1.513 0 0 1-.025 2.154l-2.947 2.837a1.508 1.508 0 0 1-2.124-.031l-3.034-3.098ZM12 12.75a.75.75 0 1 0 1.5 0 .75.75 0 0 0-1.5 0Z" fill="#212121"/>
</svg>
